X:245
T:THE BRIDAL Jig
R:Jig
M:6/8
L:1/8
Q:116
K:G
|:D |\
"G" G2G BGB  | "D7" def "G" gfg | "C" ecA "G" dBG | "D7" FAG     FED  |!
"G" G2G BGB  | "D7" def "G" gfg | "C" ecA "G" dBG | "D7" cAF "G" G2  :|
|: B |\
"Em" B2e edB | "D" def "Em" g2a | bag     "D" agf |  "Em" e2e    edB  |!
"Em" B2e edB | "D" def "Em" g2a | bag     "D" agf |1 "Em" e2e    e2  :|2"Em" e3 "D7" d2 |]
